%
(Header)
(Generated by gcodetools from Inkscape.)
(Using default header. To add your own header create file "header" in the output dir.)
M3
(Header end.)
G21 (All units in mm)

(Start cutting path id: path112)
(Change tool to Default tool)

G00 Z5.000000
G00 X996.725840 Y865.950290

G01 Z-0.125000 F100.0(Penetrate)
G01 X1176.086900 Y735.710040 Z-0.125000 F400.000000
G01 X1107.577500 Y524.975800 Z-0.125000
G01 X885.874190 Y524.975800 Z-0.125000
G01 X817.364730 Y735.710040 Z-0.125000
G01 X996.725840 Y865.950290 Z-0.125000
G00 Z5.000000

(End cutting path id: path112)


(Start cutting path id: path102)
(Change tool to Default tool)

G00 Z5.000000
G00 X1216.548200 Y962.363130

G01 Z-0.125000 F100.0(Penetrate)
G01 X1200.580800 Y962.363130 Z-0.125000 F400.000000
G01 X1200.580800 Y962.522720 Z-0.125000
G01 X1209.481000 Y972.297250 Z-0.125000
G03 X1210.632962 Y973.579382 Z-0.125000 I-117.644022 J106.858615
G03 X1211.716500 Y974.810710 Z-0.125000 I-124.908659 J111.008946
G03 X1212.752159 Y976.078923 Z-0.125000 I-19.251511 J16.778315
G03 X1213.654900 Y977.343950 Z-0.125000 I-18.749763 J14.334713
G03 X1214.431661 Y978.680603 Z-0.125000 I-11.145661 J7.371036
G03 X1215.031300 Y980.056880 Z-0.125000 I-11.623464 J5.883069
G03 X1215.414577 Y981.496746 Z-0.125000 I-7.776916 J2.841074
G03 X1215.548600 Y983.069190 Z-0.125000 I-9.157414 J1.572444
G03 X1215.398125 Y984.672596 Z-0.125000 I-8.617870 J0.000000
G03 X1215.012100 Y985.901810 Z-0.125000 I-5.415653 J-1.025521
G03 X1214.361942 Y987.016805 Z-0.125000 I-5.705541 J-2.579874
G03 X1213.552700 Y987.896620 Z-0.125000 I-4.298784 J-3.141887
G03 X1212.576182 Y988.587779 Z-0.125000 I-3.894642 J-4.467197
G03 X1211.438600 Y989.093500 Z-0.125000 I-3.180847 J-5.622770
G03 X1210.223734 Y989.389952 Z-0.125000 I-2.407740 J-7.229468
G03 X1208.922200 Y989.492460 Z-0.125000 I-1.301534 J-8.211464
G03 X1206.411222 Y989.109804 Z-0.125000 I0.000000 J-8.429815
G03 X1204.253300 Y988.036090 Z-0.125000 I2.263837 J-7.255122
G03 X1202.547580 Y986.335177 Z-0.125000 I4.317882 J-6.035811
G03 X1201.337700 Y983.986800 Z-0.125000 I7.267428 J-5.230021
G00 Z5.000000

(End cutting path id: path102)


(Start cutting path id: path108)
(Change tool to Default tool)

G00 Z5.000000
G00 X599.835300 Y771.737790

G01 Z-0.125000 F100.0(Penetrate)
G01 X788.425530 Y445.055990 Z-0.125000 F400.000000
G01 X411.241870 Y445.055990 Z-0.125000
G01 X599.835300 Y771.737790 Z-0.125000
G00 Z5.000000

(End cutting path id: path108)


(Start cutting path id: path100)
(Change tool to Default tool)

G00 Z5.000000
G00 X380.881580 Y962.562610

G01 Z-0.125000 F100.0(Penetrate)
G01 X380.881580 Y989.292980 Z-0.125000 F400.000000
G01 X380.721900 Y989.292980 Z-0.125000
G01 X372.179380 Y983.268670 Z-0.125000
G00 Z5.000000

(End cutting path id: path100)


(Start cutting path id: path104)
(Change tool to Default tool)

G00 Z5.000000
G00 X382.676310 Y133.225110

G01 Z-0.125000 F100.0(Penetrate)
G01 X382.676310 Y159.955470 Z-0.125000 F400.000000
G01 X382.277120 Y159.955470 Z-0.125000
G01 X369.902440 Y139.768060 Z-0.125000
G01 X369.902440 Y139.608480 Z-0.125000
G01 X387.626180 Y139.608480 Z-0.125000
G00 Z5.000000

(End cutting path id: path104)


(Start cutting path id: path106)
(Change tool to Default tool)

G00 Z5.000000
G00 X1200.960900 Y137.955180

G01 Z-0.125000 F100.0(Penetrate)
G03 X1201.877417 Y135.971888 Z-0.125000 I5.633622 J1.399986 F400.000000
G03 X1203.534800 Y134.364540 Z-0.125000 I5.282568 J3.788849
G03 X1205.665888 Y133.385543 Z-0.125000 I4.049611 J6.006241
G03 X1208.465500 Y133.008070 Z-0.125000 I2.799612 J10.193235
G03 X1210.196129 Y133.147131 Z-0.125000 I0.000000 J10.838500
G03 X1211.659000 Y133.525120 Z-0.125000 I-1.305972 J8.074038
G03 X1213.019463 Y134.171711 Z-0.125000 I-2.700908 J7.437396
G03 X1214.092400 Y134.980530 Z-0.125000 I-3.230286 J5.401192
G03 X1214.969945 Y136.003589 Z-0.125000 I-4.352730 J4.621518
G03 X1215.628500 Y137.214710 Z-0.125000 I-5.439238 J3.742227
G03 X1216.027110 Y138.540541 Z-0.125000 I-6.205418 J2.588490
G03 X1216.168200 Y140.029780 Z-0.125000 I-7.789096 J1.489239
G03 X1216.060609 Y141.329128 Z-0.125000 I-7.899741 J-0.000000
G03 X1215.730700 Y142.662920 Z-0.125000 I-8.780815 J-1.464208
G03 X1215.157336 Y143.900718 Z-0.125000 I-5.850742 J-1.958447
G03 X1214.293600 Y145.034340 Z-0.125000 I-5.732578 J-3.471936
G03 X1213.200159 Y145.955113 Z-0.125000 I-4.597517 J-4.350033
G03 X1211.738800 Y146.732320 Z-0.125000 I-4.686469 J-7.049353
G03 X1210.145675 Y147.184999 Z-0.125000 I-2.820238 J-6.895627
G03 X1207.906700 Y147.370660 Z-0.125000 I-2.238975 J-13.407634
G01 X1206.667600 Y147.370660 Z-0.125000
G00 Z5.000000

(End cutting path id: path106)


(Start cutting path id: path106)
(Change tool to Default tool)

G00 Z5.000000
G00 X1207.906700 Y147.370660

G01 Z-0.125000 F100.0(Penetrate)
G03 X1209.874566 Y147.521608 Z-0.125000 I-0.000000 J12.902768 F400.000000
G03 X1211.378000 Y147.906860 Z-0.125000 I-1.212843 J7.859248
G03 X1212.778168 Y148.571511 Z-0.125000 I-2.913212 J7.944169
G03 X1213.833700 Y149.365460 Z-0.125000 I-3.067168 J5.176335
G03 X1214.691831 Y150.362105 Z-0.125000 I-4.177991 J4.465086
G03 X1215.290000 Y151.478360 Z-0.125000 I-4.700300 J3.237157
G03 X1215.645218 Y152.699863 Z-0.125000 I-6.056995 J2.423800
G03 X1215.769000 Y154.031700 Z-0.125000 I-7.103089 J1.331837
G03 X1215.661047 Y155.249942 Z-0.125000 I-6.927838 J0.000000
G03 X1215.350600 Y156.387170 Z-0.125000 I-6.475451 J-1.156716
G03 X1214.823523 Y157.433937 Z-0.125000 I-5.220756 J-1.972719
G03 X1214.092400 Y158.340480 Z-0.125000 I-4.584312 J-2.949129
G03 X1213.180893 Y159.066277 Z-0.125000 I-3.664196 J-3.666493
G03 X1211.956000 Y159.677800 Z-0.125000 I-3.761821 J-6.002495
G03 X1210.632920 Y160.034069 Z-0.125000 I-2.381871 J-6.210676
G03 X1208.864700 Y160.175700 Z-0.125000 I-1.768220 J-10.967040
G03 X1207.440972 Y160.083759 Z-0.125000 I-0.000000 J-11.069408
G03 X1206.268400 Y159.837380 Z-0.125000 I0.987223 J-7.611850
G03 X1205.141648 Y159.427568 Z-0.125000 I2.654058 J-9.051041
G03 X1204.211800 Y158.940520 Z-0.125000 I3.005142 J-6.868400
G03 X1203.358418 Y158.328327 Z-0.125000 I4.389163 J-7.019276
G03 X1202.656600 Y157.663840 Z-0.125000 I4.235375 J-5.176188
G03 X1202.042574 Y156.911298 Z-0.125000 I5.992950 J-5.516644
G03 X1201.558000 Y156.147790 Z-0.125000 I6.197889 J-4.469121
G00 Z5.000000

(End cutting path id: path106)


(Footer)
M5
G00 X0.0000 Y0.0000
M2
(Using default footer. To add your own footer create file "footer" in the output dir.)
(end)
%