%
(Header)
(Generated by gcodetools from Inkscape.)
(Using default header. To add your own header create file "header" in the output dir.)
M3
(Header end.)
G21 (All units in mm)

(Start cutting path id: path1420)
(Change tool to Default tool)

M03 S05
G04 P0.3
G00 X259.660740 Y223.056267

G04 P0.3
M03 S120
G01 X303.524430 Y191.187040 F2400.000000
G01 X286.769880 Y139.622110
G01 X232.550810 Y139.622110
G01 X215.796260 Y191.187040
G01 X259.660740 Y223.056267
M03 S05
G04 P0.3

(End cutting path id: path1420)


(Start cutting path id: path1412)
(Change tool to Default tool)

M03 S05
G04 P0.3
G00 X162.597770 Y200.003195

G04 P0.3
M03 S120
G01 X208.719190 Y120.064840 F2400.000000
G01 X116.474910 Y120.064840
G01 X162.597770 Y200.003195
M03 S05
G04 P0.3

(End cutting path id: path1412)


(Start cutting path id: path1444)
(Change tool to Default tool)

M03 S05
G04 P0.3
G00 X150.297540 Y248.206997

G04 P0.3
M03 S120
G02 X150.286170 Y248.404551 I9.156924 J0.626114 F2400.000000
G02 X150.276140 Y248.682995 I13.001953 J0.607760
G02 X150.270569 Y248.961711 I20.150129 J0.542206
G02 X150.269140 Y249.180279 I16.719359 J0.218568
G01 X150.269140 Y250.872933
G03 X150.254409 Y251.125071 I-2.165138 J-0.000000
G03 X150.212240 Y251.356099 I-1.828606 J-0.214407
G03 X150.135710 Y251.575715 I-1.194896 J-0.293248
G03 X150.029490 Y251.754555 I-0.893696 J-0.409834
G03 X149.885075 Y251.903204 I-0.659883 J-0.496614
G03 X149.694120 Y252.022582 I-0.610771 J-0.764564
G03 X149.479811 Y252.092664 I-0.380799 J-0.801756
G03 X149.176010 Y252.121412 I-0.303801 J-1.590878
G03 X148.743991 Y252.061988 I0.000000 J-1.600135
G03 X148.445700 Y251.916808 I0.250733 J-0.894190
G03 X148.207062 Y251.680519 I0.680742 J-0.926160
G03 X147.991180 Y251.310272 I1.482821 J-1.112658
M03 S05
G04 P0.3

(End cutting path id: path1444)


(Start cutting path id: path1442)
(Change tool to Default tool)

M03 S05
G04 P0.3
G00 X146.199500 Y252.121405

G04 P0.3
M03 S120
G01 X146.199500 Y248.206993 F2400.000000
G01 X146.199500 Y252.121405
M03 S05
G04 P0.3

(End cutting path id: path1442)


(Start cutting path id: path1442)
(Change tool to Default tool)

M03 S05
G04 P0.3
G00 X146.199500 Y249.194397

G04 P0.3
M03 S120
G02 X146.087432 Y249.022789 I-2.211983 J1.322131 F2400.000000
G02 X145.945800 Y248.838186 I-2.623515 J1.866193
G02 X145.788666 Y248.667852 I-1.548814 J1.271140
G02 X145.617790 Y248.520854 I-1.364391 J1.413207
G02 X145.430670 Y248.396068 I-1.045479 J1.365036
G02 X145.226190 Y248.295073 I-0.891020 J1.546510
G02 X145.010348 Y248.229336 I-0.434717 J1.040139
G02 X144.782380 Y248.206993 I-0.227968 J1.151819
G02 X144.406294 Y248.282086 I-0.000000 J0.979312
G02 X144.129720 Y248.478496 I0.294069 J0.707026
G02 X143.960211 Y248.778149 I0.600931 J0.537707
G02 X143.886730 Y249.264875 I1.575245 J0.486726
G01 X143.886730 Y252.121405
M03 S05
G04 P0.3

(End cutting path id: path1442)


(Start cutting path id: path1440)
(Change tool to Default tool)

M03 S05
G04 P0.3
G00 X141.946810 Y252.121409

G04 P0.3
M03 S120
G01 X141.946810 Y246.866862 F2400.000000
G01 X141.946810 Y252.121409
M03 S05
G04 P0.3

(End cutting path id: path1440)


(Start cutting path id: path1440)
(Change tool to Default tool)

M03 S05
G04 P0.3
G00 X141.946810 Y251.176255

G04 P0.3
M03 S120
G03 X141.614922 Y251.643277 I-2.489824 J-1.417948 F2400.000000
G03 X141.312220 Y251.902687 I-1.044085 J-0.912015
G03 X140.950751 Y252.067132 I-0.775722 J-1.225628
G03 X140.578570 Y252.121409 I-0.372181 J-1.248896
G03 X140.263743 Y252.084046 I-0.000000 J-1.345079
G03 X140.006900 Y251.983812 I0.238283 J-0.989774
G03 X139.784094 Y251.820694 I0.552149 J-0.987917
G03 X139.591200 Y251.592414 I0.891976 J-0.949347
G03 X139.448403 Y251.326697 I1.309811 J-0.875121
G03 X139.333490 Y250.978819 I2.162844 J-0.907364
G03 X139.269906 Y250.616274 I2.775179 J-0.673568
G03 X139.245790 Y250.174738 I4.029986 J-0.441536
G03 X139.264661 Y249.788849 I3.954980 J-0.000000
G03 X139.319390 Y249.430604 I3.349077 J0.328337
G03 X139.420010 Y249.084659 I2.278163 J0.475013
G03 X139.555690 Y248.802891 I1.660485 J0.626021
G03 X139.743923 Y248.556380 I1.185439 J0.710066
G03 X139.972050 Y248.369139 I0.897681 J0.861107
G03 X140.238937 Y248.252108 I0.508758 J0.797380
G03 X140.585890 Y248.206997 I0.346953 J1.311680
G03 X141.014109 Y248.274731 I0.000000 J1.387489
G03 X141.379120 Y248.464382 I-0.385444 J1.187927
G03 X141.679897 Y248.756251 I-1.003675 J1.335220
G03 X141.946770 Y249.173220 I-1.839026 J1.470922
G01 X141.946810 Y251.176255
M03 S05
G04 P0.3

(End cutting path id: path1440)


(Start cutting path id: path1438)
(Change tool to Default tool)

M03 S05
G04 P0.3
G00 X135.570800 Y249.039206

G04 P0.3
M03 S120
G03 X135.755244 Y248.688460 I1.102223 J0.355749 F2400.000000
G03 X136.043400 Y248.425611 I0.886315 J0.682275
G03 X136.405775 Y248.265540 I0.716837 J1.132591
G03 X136.840650 Y248.206997 I0.434875 J1.585913
G03 X137.049855 Y248.220861 I-0.000000 J1.585314
G03 X137.263710 Y248.263357 I-0.225624 J1.694782
G03 X137.467735 Y248.336654 I-0.332272 J1.245490
G03 X137.641250 Y248.436141 I-0.455279 J0.995112
G03 X137.790006 Y248.567821 I-0.511942 J0.728191
G03 X137.909010 Y248.732405 I-0.697021 J0.629305
G03 X137.983116 Y248.919774 I-0.622077 J0.354376
G03 X138.011420 Y249.159098 I-0.997645 J0.239324
G03 X137.963038 Y249.465583 I-0.994931 J-0.000000
G03 X137.842070 Y249.681034 I-0.596140 J-0.193025
G03 X137.655732 Y249.856590 I-0.924470 J-0.794577
G03 X137.414990 Y250.005425 I-0.887576 J-1.166548
G03 X137.153831 Y250.121881 I-1.598314 J-3.233231
G03 X136.858050 Y250.227622 I-1.596973 J-4.000555
G02 X136.562310 Y250.332564 I1.458036 J4.578135
G02 X136.301110 Y250.446236 I1.412050 J3.601585
G02 X136.057868 Y250.589510 I0.709436 J1.482559
G02 X135.874040 Y250.749558 I0.721502 J1.014295
G02 X135.753714 Y250.948675 I0.407322 J0.382060
G02 X135.704680 Y251.239783 I0.839623 J0.291108
G02 X135.733062 Y251.464335 I0.902476 J0.000000
G02 X135.807100 Y251.638240 I0.608352 J-0.156284
G02 X135.924095 Y251.790108 I0.796152 J-0.492337
G02 X136.068160 Y251.913326 I0.660913 J-0.626901
G02 X136.234168 Y252.006794 I0.598131 J-0.868180
G02 X136.420940 Y252.071992 I0.469465 J-1.044750
G02 X136.616069 Y252.109272 I0.404478 J-1.587800
G02 X136.805170 Y252.121402 I0.189101 J-1.467904
G02 X137.165616 Y252.074242 I0.000000 J-1.401022
G02 X137.453820 Y251.948510 I-0.268591 J-1.008846
G02 X137.690851 Y251.743040 I-0.544653 J-0.867768
G02 X137.862820 Y251.465453 I-0.843282 J-0.714488
M03 S05
G04 P0.3

(End cutting path id: path1438)


(Start cutting path id: path1436)
(Change tool to Default tool)

M03 S05
G04 P0.3
G00 X131.727120 Y248.206995

G04 P0.3
M03 S120
G01 X131.727120 Y251.133899 F2400.000000
G03 X131.664705 Y251.577715 I-1.609139 J-0.000000
G03 X131.518940 Y251.860439 I-0.782640 J-0.224570
G03 X131.274776 Y252.045749 I-0.486473 J-0.387463
G03 X130.901750 Y252.121407 I-0.373026 J-0.881766
G03 X130.673238 Y252.099616 I-0.000000 J-1.209029
G03 X130.461290 Y252.036697 I0.212623 J-1.104685
G03 X130.260215 Y251.939764 I0.668800 J-1.644350
G03 X130.066340 Y251.814499 I0.919942 J-1.636482
G03 X129.886508 Y251.668846 I1.487160 J-2.019981
G03 X129.710220 Y251.497167 I1.808144 J-2.033035
G03 X129.542109 Y251.316043 I10.993583 J-10.372360
G03 X129.378200 Y251.133897 I12.504257 J-11.417069
M03 S05
G04 P0.3

(End cutting path id: path1436)


(Start cutting path id: path1436)
(Change tool to Default tool)

M03 S05
G04 P0.3
G00 X127.029960 Y252.121409

G04 P0.3
M03 S120
G01 X127.029960 Y248.206997 F2400.000000
G01 X127.029960 Y252.121409
M03 S05
G04 P0.3

(End cutting path id: path1436)


(Start cutting path id: path1434)
(Change tool to Default tool)

M03 S05
G04 P0.3
G00 X125.090040 Y248.206995

G04 P0.3
M03 S120
G01 X125.090040 Y251.133899 F2400.000000
G03 X125.027893 Y251.577551 I-1.614636 J0.000000
G03 X124.881860 Y251.860439 I-0.777321 J-0.222134
G03 X124.637601 Y252.045863 I-0.486908 J-0.387810
G03 X124.265340 Y252.121407 I-0.372261 J-0.879431
G03 X124.036488 Y252.099647 I0.000000 J-1.214310
G03 X123.824210 Y252.036697 I0.211761 J-1.103484
G03 X123.623134 Y251.939762 I0.668776 J-1.644293
G03 X123.429270 Y251.814499 I0.919664 J-1.635967
G03 X123.249804 Y251.668941 I1.462151 J-1.986171
G03 X123.073150 Y251.497167 I1.904205 J-2.135032
G03 X122.904999 Y251.315919 I10.646590 J-10.045863
G03 X122.741790 Y251.133897 I10.593453 J-9.662768
M03 S05
G04 P0.3

(End cutting path id: path1434)


(Start cutting path id: path1434)
(Change tool to Default tool)

M03 S05
G04 P0.3
G00 X120.392880 Y252.121409

G04 P0.3
M03 S120
G01 X120.392880 Y248.206997 F2400.000000
G01 X120.392880 Y252.121409
M03 S05
G04 P0.3

(End cutting path id: path1434)


(Start cutting path id: path1434)
(Change tool to Default tool)

M03 S05
G04 P0.3
G00 X122.741790 Y248.206997

G04 P0.3
M03 S120
G01 X122.741790 Y251.133901 F2400.000000
G03 X122.679375 Y251.577717 I-1.609139 J0.000000
G03 X122.533610 Y251.860441 I-0.782640 J-0.224570
G03 X122.289085 Y252.045930 I-0.486572 J-0.387514
G03 X121.916430 Y252.121409 I-0.372655 J-0.882195
G03 X121.687920 Y252.099618 I-0.000000 J-1.209031
G03 X121.475960 Y252.036699 I0.212657 J-1.104873
G03 X121.274544 Y251.939718 I0.654735 J-1.617438
G03 X121.080350 Y251.814501 I0.947276 J-1.682288
G03 X120.900890 Y251.668944 I1.461793 J-1.985685
G03 X120.724230 Y251.497169 I1.905724 J-2.136646
G03 X120.556809 Y251.316169 I12.906510 J-12.106144
G03 X120.392880 Y251.133899 I12.924321 J-11.788680
M03 S05
G04 P0.3

(End cutting path id: path1434)


(Start cutting path id: path1432)
(Change tool to Default tool)

M03 S05
G04 P0.3
G00 X114.948000 Y253.003032

G04 P0.3
M03 S120
G03 X114.575554 Y252.951895 I-0.000000 J-1.381887 F2400.000000
G03 X114.267220 Y252.812546 I0.301983 J-1.078987
G03 X114.005378 Y252.593148 I0.780037 J-1.196890
G03 X113.780570 Y252.294193 I1.256571 J-1.178917
G03 X113.617655 Y251.954063 I1.871354 J-1.105416
G03 X113.491390 Y251.525407 I2.853213 J-1.073371
G03 X113.421578 Y251.081962 I4.014054 J-0.859157
G03 X113.396290 Y250.583837 I4.893470 J-0.498125
G03 X113.421897 Y250.078635 I4.996353 J0.000000
G03 X113.491390 Y249.642267 I3.882782 J0.394627
G03 X113.617701 Y249.220836 I2.877543 J0.632812
G03 X113.780570 Y248.887599 I1.955503 J0.749328
G03 X114.005438 Y248.596753 I1.398290 J0.848740
G03 X114.267220 Y248.386840 I0.971945 J0.943918
G03 X114.573951 Y248.256058 I0.594449 J0.969106
G03 X114.955360 Y248.206997 I0.381409 J1.458051
G03 X115.336464 Y248.255976 I0.000000 J1.507153
G03 X115.642830 Y248.386840 I-0.285542 J1.092535
G03 X115.905339 Y248.597006 I-0.705598 J1.150357
G03 X116.129480 Y248.887599 I-1.159616 J1.126178
G03 X116.292353 Y249.220837 I-1.792817 J1.082676
G03 X116.418660 Y249.642267 I-2.750283 J1.053933
G03 X116.488394 Y250.078686 I-3.716661 J0.817651
G03 X116.513760 Y250.583837 I-5.017157 J0.505151
G03 X116.488749 Y251.081904 I-4.971805 J-0.000000
G03 X116.418660 Y251.525407 I-3.963137 J-0.399028
G03 X116.292391 Y251.954063 I-2.980470 J-0.645031
G03 X116.129480 Y252.294193 I-2.034072 J-0.765173
G03 X115.905538 Y252.593561 I-1.485962 J-0.878129
G03 X115.646180 Y252.812546 I-1.046721 J-0.976618
G03 X115.341757 Y252.951095 I-0.594894 J-0.903395
G03 X114.962050 Y253.003032 I-0.379707 J-1.362043
G01 X114.948000 Y253.003032
M03 S05
G04 P0.3

(End cutting path id: path1432)


(Start cutting path id: path1430)
(Change tool to Default tool)

M03 S05
G04 P0.3
G00 X112.197440 Y248.206997

G04 P0.3
M03 S120
G01 X109.376600 Y248.206997 F2400.000000
G01 X109.376600 Y248.235127
G01 X110.949010 Y249.963185
G03 X111.152785 Y250.189927 I-22.273267 J20.222039
G03 X111.343960 Y250.407471 I-17.855566 J15.884089
G03 X111.527086 Y250.631807 I-3.318230 J2.895594
G03 X111.686020 Y250.855342 I-3.240977 J2.472610
G03 X111.823504 Y251.091621 I-1.985575 J1.313485
G03 X111.929680 Y251.334923 I-2.040062 J1.035095
G03 X111.997537 Y251.589511 I-1.386807 J0.505970
G03 X112.021380 Y251.867502 I-1.608639 J0.277991
G03 X111.994462 Y252.150901 I-1.505299 J-0.000000
G03 X111.925680 Y252.368261 I-0.958443 J-0.183729
G03 X111.810995 Y252.565446 I-1.011583 J-0.456405
G03 X111.668630 Y252.720888 I-0.763645 J-0.556486
G03 X111.495420 Y252.843143 I-0.697160 J-0.803903
G03 X111.294430 Y252.932443 I-0.560640 J-0.991013
G03 X111.080137 Y252.984919 I-0.423921 J-1.267346
G03 X110.850620 Y253.003033 I-0.229517 J-1.445043
G03 X110.406443 Y252.935330 I0.000000 J-1.490910
G03 X110.025260 Y252.745540 I0.399503 J-1.280066
G03 X109.723841 Y252.444881 I0.764805 J-1.068159
G03 X109.510490 Y252.029642 I1.273754 J-0.916888
M03 S05
G04 P0.3

(End cutting path id: path1430)


(Start cutting path id: path1428)
(Change tool to Default tool)

M03 S05
G04 P0.3
G00 X108.318280 Y248.206997

G04 P0.3
M03 S120
G01 X105.497110 Y248.206997 F2400.000000
G01 X105.497110 Y248.235127
G01 X107.069920 Y249.963185
G03 X107.273365 Y250.189804 I-23.155827 J20.992531
G03 X107.464930 Y250.407471 I-21.710303 J19.300012
G03 X107.647895 Y250.631743 I-3.393858 J2.955534
G03 X107.807000 Y250.855342 I-3.236385 J2.471304
G03 X107.944516 Y251.091672 I-1.987930 J1.314913
G03 X108.050320 Y251.334923 I-1.994861 J1.012316
G03 X108.118205 Y251.589538 I-1.371462 J0.502015
G03 X108.141920 Y251.867502 I-1.617165 J0.277964
G03 X108.115232 Y252.150917 I-1.518240 J0.000000
G03 X108.046720 Y252.368261 I-0.954141 J-0.181300
G03 X107.932143 Y252.565326 I-1.001370 J-0.450377
G03 X107.789270 Y252.720888 I-0.761365 J-0.555867
G03 X107.616349 Y252.843145 I-0.692094 J-0.795485
G03 X107.415480 Y252.932443 I-0.561673 J-0.992870
G03 X107.200959 Y252.984878 I-0.426020 J-1.277878
G03 X106.971140 Y253.003033 I-0.229819 J-1.445547
G03 X106.527334 Y252.935371 I-0.000000 J-1.489334
G03 X106.145970 Y252.745540 I0.400191 J-1.281958
G03 X105.844567 Y252.444849 I0.762199 J-1.065408
G03 X105.631070 Y252.029642 I1.281739 J-0.921555
M03 S05
G04 P0.3

(End cutting path id: path1428)


(Start cutting path id: rect1424)
(Change tool to Default tool)

M03 S05
G04 P0.3
G00 X100.040420 Y258.459630

G04 P0.3
M03 S120
G01 X319.959580 Y258.459630 F2400.000000
G01 X319.959580 Y38.540360
G01 X100.040420 Y38.540360
G01 X100.040420 Y258.459630
M03 S05
G04 P0.3

(End cutting path id: rect1424)


(Start cutting path id: path1436)
(Change tool to Default tool)

M03 S05
G04 P0.3
G00 X129.378200 Y248.206997

G04 P0.3
M03 S120
G01 X129.378200 Y251.133901 F2400.000000
G03 X129.316130 Y251.577731 I-1.617830 J-0.000000
G03 X129.170690 Y251.860441 I-0.780067 J-0.222539
G03 X128.925711 Y252.045917 I-0.489010 J-0.391367
G03 X128.553500 Y252.121409 I-0.372211 J-0.879838
G03 X128.324648 Y252.099649 I-0.000000 J-1.214310
G03 X128.112370 Y252.036699 I0.211761 J-1.103484
G03 X127.911307 Y251.939768 I0.668912 J-1.644508
G03 X127.717430 Y251.814501 I0.920001 J-1.636567
G03 X127.537970 Y251.668944 I1.461793 J-1.985685
G03 X127.361310 Y251.497169 I1.905724 J-2.136646
G03 X127.193159 Y251.315919 I10.641926 J-10.041462
G03 X127.029960 Y251.133899 I10.569293 J-9.640585
M03 S05
G04 P0.3

(End cutting path id: path1436)


(Start cutting path id: path1444)
(Change tool to Default tool)

M03 S05
G04 P0.3
G00 X150.269440 Y250.379233

G04 P0.3
M03 S120
G01 X149.839010 Y250.379233 F2400.000000
G03 X148.800349 Y250.283803 I0.000000 J-5.700136
G03 X148.298060 Y250.093613 I0.275257 J-1.485312
G03 X147.954965 Y249.732775 I0.479887 J-0.799821
G03 X147.822120 Y249.201456 I0.996089 J-0.531319
G03 X147.837240 Y249.013396 I1.177079 J0.000000
G03 X147.881720 Y248.831127 I1.174906 J0.190156
G03 X147.958016 Y248.660350 I0.918943 J0.308113
G03 X148.061790 Y248.513795 I0.787114 J0.447330
G03 X148.193568 Y248.392485 I0.607085 J0.527239
G03 X148.365030 Y248.291597 I0.585418 J0.798793
G03 X148.553723 Y248.230823 I0.345597 J0.749700
G03 X148.802150 Y248.206997 I0.248427 J1.283233
G03 X149.237863 Y248.275971 I0.000000 J1.410699
G03 X149.616800 Y248.471441 I-0.407648 J1.255302
G03 X149.950354 Y248.759186 I-1.791642 J2.414076
G03 X150.269470 Y249.123806 I-2.568773 J2.570146
G01 X150.269440 Y250.379233
M03 S05
G04 P0.3

(End cutting path id: path1444)


(Start cutting path id: path1446)
(Change tool to Default tool)

M03 S05
G04 P0.3
G00 X152.131030 Y251.133901

G04 P0.3
M03 S120
G02 X152.527835 Y251.554660 I5.620144 J-4.902694 F2400.000000
G02 X152.858000 Y251.846323 I2.948384 J-3.004894
G02 X153.223993 Y252.061350 I0.939522 J-1.180155
G02 X153.528060 Y252.121409 I0.304067 J-0.739681
M03 S05
G04 P0.3

(End cutting path id: path1446)


(Start cutting path id: path1446)
(Change tool to Default tool)

M03 S05
G04 P0.3
G00 X152.131030 Y252.121409

G04 P0.3
M03 S120
G01 X152.131030 Y248.206997 F2400.000000
G01 X152.131030 Y252.121409
M03 S05
G04 P0.3

(End cutting path id: path1446)


(Start cutting path id: path1448)
(Change tool to Default tool)

M03 S05
G04 P0.3
G00 X154.430410 Y250.358165

G04 P0.3
M03 S120
G01 X157.138790 Y250.358165 F2400.000000
G03 X157.125244 Y250.653165 I-3.218974 J-0.000000
G03 X157.082590 Y250.968176 I-3.697964 J-0.340329
G03 X157.001886 Y251.273253 I-1.912371 J-0.342680
G03 X156.881770 Y251.535942 I-1.532702 J-0.542030
G03 X156.711596 Y251.766156 I-1.048150 J-0.596788
G03 X156.486820 Y251.955576 I-0.932017 J-0.877907
G03 X156.221725 Y252.074093 I-0.492001 J-0.744754
G03 X155.855580 Y252.121409 I-0.366145 J-1.393012
G03 X155.532309 Y252.085454 I-0.000000 J-1.471259
G03 X155.259150 Y251.987396 I0.259629 J-1.152736
G03 X155.018028 Y251.826015 I0.548319 J-1.080073
G03 X154.807970 Y251.599473 I0.890772 J-1.036616
G03 X154.649323 Y251.331816 I1.267527 J-0.932141
G03 X154.518790 Y250.978819 I2.086980 J-0.972367
G03 X154.444662 Y250.608136 I2.431012 J-0.678901
G03 X154.416370 Y250.146501 I3.752087 J-0.461635
G03 X154.439241 Y249.726063 I3.875941 J0.000000
G03 X154.501370 Y249.370656 I2.787684 J0.304186
G03 X154.614389 Y249.030778 I2.020835 J0.483256
G03 X154.765780 Y248.757061 I1.469310 J0.633939
G03 X154.970668 Y248.524678 I1.070136 J0.737007
G03 X155.220300 Y248.351545 I0.829057 J0.928842
G03 X155.505546 Y248.247312 I0.530032 J1.008072
G03 X155.876310 Y248.206997 I0.370764 J1.684749
G03 X156.120171 Y248.224434 I0.000000 J1.713906
G03 X156.317440 Y248.270417 I-0.167306 J1.163898
G03 X156.504480 Y248.346923 I-0.440942 J1.344893
G03 X156.659510 Y248.439726 I-0.503619 J1.017202
G03 X156.797825 Y248.555295 I-0.705152 J0.984492
G03 X156.913210 Y248.686576 I-0.769171 J0.792384
G03 X157.009474 Y248.833030 I-1.162860 J0.869209
G03 X157.082570 Y248.982731 I-1.081226 J0.620639
M03 S05
G04 P0.3

(End cutting path id: path1448)


(Start cutting path id: circle1416)
(Change tool to Default tool)

M03 S05
G04 P0.3
G00 X272.040670 Y120.064840

G04 P0.3
M03 S120
G02 X258.531983 Y87.451990 I-46.121544 J0.000006 F2400.000000
G02 X225.919130 Y73.943300 I-32.612862 J32.612862
G02 X193.306271 Y87.451986 I-0.000001 J46.121551
G02 X179.797580 Y120.064840 I32.612853 J32.612860
G02 X193.306271 Y152.677694 I46.121544 J-0.000006
G02 X225.919130 Y166.186380 I32.612858 J-32.612865
G02 X258.531983 Y152.677690 I-0.000009 J-46.121551
G02 X272.040670 Y120.064840 I-32.612856 J-32.612856
G01 X272.040670 Y120.064840
M03 S05
G04 P0.3

(End cutting path id: circle1416)


(Footer)
M5
G00 X0.0000 Y0.0000
M2
(Using default footer. To add your own footer create file "footer" in the output dir.)
(end)
%