%
(Header)
(Generated by gcodetools from Inkscape.)
(Using default header. To add your own header create file "header" in the output dir.)
M3
(Header end.)
G21 (All units in mm)

(Start cutting path id: path722)
(Change tool to Default tool)

M03 S05
G04 P0.3
G00 X127.294460 Y171.857785

G04 P0.3
M03 S120
G01 X130.001620 Y171.857785 F2400.000000
G03 X129.988074 Y172.152725 I-3.217674 J0.000000
G03 X129.945420 Y172.467673 I-3.696524 J-0.340265
G03 X129.864729 Y172.772690 I-1.912582 J-0.342786
G03 X129.744640 Y173.035325 I-1.532257 J-0.541845
G03 X129.574492 Y173.265493 I-1.048485 J-0.597103
G03 X129.349770 Y173.454874 I-0.931634 J-0.877470
G03 X129.085250 Y173.573371 I-0.489164 J-0.737465
G03 X128.718660 Y173.620675 I-0.366590 J-1.396821
G03 X128.395895 Y173.584830 I-0.000000 J-1.471099
G03 X128.122350 Y173.486688 I0.259284 J-1.152970
G03 X127.881282 Y173.325341 I0.548184 J-1.079805
G03 X127.671270 Y173.098843 I0.890555 J-1.036346
G03 X127.512650 Y172.831239 I1.267171 J-0.931916
G03 X127.382140 Y172.478314 I2.086699 J-0.972246
G03 X127.308021 Y172.107704 I2.429301 J-0.678559
G03 X127.279740 Y171.646164 I3.752015 J-0.461540
G03 X127.302894 Y171.225747 I3.828381 J0.000000
G03 X127.364740 Y170.870476 I2.877812 J0.317953
G03 X127.477746 Y170.530663 I2.021008 J0.483394
G03 X127.629100 Y170.257004 I1.469118 J0.633850
G03 X127.834259 Y170.024645 I1.064236 J0.732908
G03 X128.084190 Y169.851570 I0.833188 J0.936177
G03 X128.369097 Y169.747396 I0.530288 J1.008603
G03 X128.739410 Y169.707051 I0.370313 J1.679332
G03 X128.983753 Y169.724483 I-0.000000 J1.721224
G03 X129.180450 Y169.770461 I-0.164653 J1.148116
G03 X129.367913 Y169.847015 I-0.445374 J1.358416
G03 X129.522450 Y169.939736 I-0.488017 J0.988518
G03 X129.661077 Y170.055431 I-0.681826 J0.957866
G03 X129.776100 Y170.186536 I-0.777912 J0.798503
G03 X129.872623 Y170.333085 I-1.101513 J0.830557
G03 X129.945420 Y170.482631 I-1.099118 J0.627531
M03 S05
G04 P0.3

(End cutting path id: path722)


(Start cutting path id: path720)
(Change tool to Default tool)

M03 S05
G04 P0.3
G00 X124.995540 Y172.633365

G04 P0.3
M03 S120
G02 X125.392007 Y173.054116 I5.500890 J-4.786238 F2400.000000
G02 X125.721690 Y173.345643 I2.998323 J-3.058569
G02 X126.088129 Y173.560807 I0.938920 J-1.179426
G02 X126.391620 Y173.620675 I0.303491 J-0.739318
M03 S05
G04 P0.3

(End cutting path id: path720)


(Start cutting path id: path720)
(Change tool to Default tool)

M03 S05
G04 P0.3
G00 X124.995540 Y173.620675

G04 P0.3
M03 S120
G01 X124.995540 Y169.707051 F2400.000000
G01 X124.995540 Y173.620675
M03 S05
G04 P0.3

(End cutting path id: path720)


(Start cutting path id: path718)
(Change tool to Default tool)

M03 S05
G04 P0.3
G00 X123.133650 Y171.878849

G04 P0.3
M03 S120
G01 X122.703310 Y171.878849 F2400.000000
G03 X121.665192 Y171.783523 I-0.000000 J-5.700342
G03 X121.162670 Y171.593286 I0.275174 J-1.485724
G03 X120.819654 Y171.232527 I0.479825 J-0.799680
G03 X120.686830 Y170.701309 I0.995871 J-0.531218
G03 X120.702020 Y170.513358 I1.170384 J-0.000000
G03 X120.747030 Y170.331055 I1.148607 J0.186879
G03 X120.822665 Y170.160386 I0.898348 J0.296025
G03 X120.926400 Y170.013787 I0.783767 J0.444601
G03 X121.058920 Y169.892274 I0.617617 J0.540541
G03 X121.229570 Y169.791634 I0.589362 J0.804353
G03 X121.418507 Y169.730839 I0.345166 J0.748716
G03 X121.667270 Y169.707054 I0.248763 J1.288981
G03 X122.102447 Y169.775866 I-0.000000 J1.410467
G03 X122.481760 Y169.971444 I-0.407164 J1.255290
G03 X122.814524 Y170.258976 I-1.805374 J2.425704
G03 X123.133620 Y170.623678 I-2.574203 J2.574244
G01 X123.133650 Y171.878849
M03 S05
G04 P0.3

(End cutting path id: path718)


(Start cutting path id: path718)
(Change tool to Default tool)

M03 S05
G04 P0.3
G00 X123.161750 Y169.707051

G04 P0.3
M03 S120
G02 X123.150671 Y169.904564 I8.055729 J0.550932 F2400.000000
G02 X123.141050 Y170.182953 I15.063034 J0.659934
G02 X123.135479 Y170.461613 I20.141819 J0.542094
G02 X123.134050 Y170.680137 I16.712699 J0.218524
G01 X123.134050 Y172.372450
G03 X123.119445 Y172.624592 I-2.183812 J0.000000
G03 X123.077850 Y172.855518 I-1.865967 J-0.216894
G03 X123.000969 Y173.075108 I-1.177819 J-0.289116
G03 X122.894470 Y173.253894 I-0.906451 J-0.418840
G03 X122.750440 Y173.402346 I-0.662534 J-0.498706
G03 X122.559170 Y173.521867 I-0.604266 J-0.754200
G03 X122.344896 Y173.591936 I-0.380727 J-0.801610
G03 X122.041160 Y173.620677 I-0.303736 J-1.590602
G03 X121.609110 Y173.561220 I-0.000000 J-1.599495
G03 X121.311660 Y173.416113 I0.249184 J-0.888214
G03 X121.072683 Y173.179736 I0.674461 J-0.920871
G03 X120.856560 Y172.809699 I1.501078 J-1.124849
M03 S05
G04 P0.3

(End cutting path id: path718)


(Start cutting path id: path716)
(Change tool to Default tool)

M03 S05
G04 P0.3
G00 X119.065200 Y173.620673

G04 P0.3
M03 S120
G01 X119.065200 Y169.707049 F2400.000000
G01 X119.065200 Y173.620673
M03 S05
G04 P0.3

(End cutting path id: path716)


(Start cutting path id: path716)
(Change tool to Default tool)

M03 S05
G04 P0.3
G00 X119.065200 Y170.694252

G04 P0.3
M03 S120
G02 X118.952521 Y170.522576 I-2.299596 J1.386512 F2400.000000
G02 X118.810890 Y170.338112 I-2.651317 J1.889075
G02 X118.653776 Y170.167809 I-1.550284 J1.272601
G02 X118.482950 Y170.020845 I-1.363926 J1.412616
G02 X118.295748 Y169.895958 I-1.049173 J1.369929
G02 X118.092100 Y169.795109 I-0.897895 J1.557114
G02 X117.875963 Y169.729450 I-0.437674 J1.052162
G02 X117.647710 Y169.707049 I-0.228253 J1.151707
G02 X117.272537 Y169.781960 I-0.000000 J0.976940
G02 X116.995170 Y169.978497 I0.296051 J0.711795
G02 X116.825695 Y170.278091 I0.600790 J0.537588
G02 X116.752230 Y170.764718 I1.574962 J0.486627
G01 X116.752230 Y173.620673
M03 S05
G04 P0.3

(End cutting path id: path716)


(Start cutting path id: path714)
(Change tool to Default tool)

M03 S05
G04 P0.3
G00 X114.812710 Y173.620675

G04 P0.3
M03 S120
G01 X114.812710 Y168.367185 F2400.000000
G01 X114.812710 Y173.620675
M03 S05
G04 P0.3

(End cutting path id: path714)


(Start cutting path id: path714)
(Change tool to Default tool)

M03 S05
G04 P0.3
G00 X114.812710 Y172.675710

G04 P0.3
M03 S120
G03 X114.480884 Y173.142640 I-2.489669 J-1.417924 F2400.000000
G03 X114.178250 Y173.401996 I-1.043863 J-0.911804
G03 X113.817325 Y173.566269 I-0.775642 J-1.225532
G03 X113.444730 Y173.620675 I-0.372595 J-1.248647
G03 X113.130359 Y173.583282 I0.000000 J-1.340205
G03 X112.873850 Y173.483105 I0.239000 J-0.990460
G03 X112.650728 Y173.319919 I0.545500 J-0.979983
G03 X112.457570 Y173.091785 I0.906706 J-0.963534
G03 X112.315169 Y172.826221 I1.335968 J-0.887336
G03 X112.200580 Y172.478314 I2.113999 J-0.889105
G03 X112.136434 Y172.115773 I2.719431 J-0.668109
G03 X112.112280 Y171.674395 I4.020741 J-0.441378
G03 X112.131510 Y171.288585 I3.879847 J0.000000
G03 X112.186580 Y170.930411 I3.406358 J0.340413
G03 X112.286655 Y170.584704 I2.244671 J0.462450
G03 X112.422830 Y170.302825 I1.635894 J0.616461
G03 X112.610355 Y170.056446 I1.173254 J0.698435
G03 X112.838440 Y169.869159 I0.896590 J0.859375
G03 X113.105703 Y169.752027 I0.508802 J0.797470
G03 X113.452150 Y169.707051 I0.346447 J1.311841
G03 X113.880756 Y169.774771 I0.000000 J1.390201
G03 X114.245230 Y169.964384 I-0.382608 J1.180551
G03 X114.546266 Y170.256256 I-1.007420 J1.340232
G03 X114.812770 Y170.673079 I-1.814075 J1.453472
G01 X114.812710 Y172.675710
M03 S05
G04 P0.3

(End cutting path id: path714)


(Start cutting path id: path712)
(Change tool to Default tool)

M03 S05
G04 P0.3
G00 X108.438650 Y170.539092

G04 P0.3
M03 S120
G03 X108.622424 Y170.188473 I1.095559 J0.350756 F2400.000000
G03 X108.910480 Y169.925621 I0.885541 J0.681187
G03 X109.273713 Y169.765456 I0.719972 J1.140834
G03 X109.707570 Y169.707051 I0.433857 J1.582243
G03 X109.917246 Y169.720981 I-0.000000 J1.585042
G03 X110.130550 Y169.763401 I-0.226190 J1.694852
G03 X110.334530 Y169.836686 I-0.332409 J1.245739
G03 X110.508010 Y169.936149 I-0.455145 J0.994870
G03 X110.656738 Y170.067808 I-0.511925 J0.728128
G03 X110.775710 Y170.232353 I-0.696747 J0.629056
G03 X110.849812 Y170.419689 I-0.621772 J0.354270
G03 X110.878110 Y170.658960 I-0.997416 J0.239271
G03 X110.829732 Y170.965387 I-0.994648 J-0.000000
G03 X110.708790 Y171.180792 I-0.596097 J-0.193032
G03 X110.522834 Y171.356380 I-0.909915 J-0.777380
G03 X110.282470 Y171.505117 I-0.896173 J-1.179659
G03 X110.020565 Y171.621630 I-1.625532 J-3.301353
G03 X109.724970 Y171.727270 I-1.598923 J-4.007623
G02 X109.429289 Y171.832192 I1.458166 J4.578348
G02 X109.168150 Y171.945839 I1.411438 J3.600064
G02 X108.925257 Y172.089032 I0.719877 J1.498708
G02 X108.741820 Y172.249101 I0.706783 J0.995103
G02 X108.621236 Y172.448367 I0.402269 J0.379546
G02 X108.572500 Y172.739226 I0.843555 J0.290859
G02 X108.600880 Y172.963735 I0.902220 J0.000000
G02 X108.674900 Y173.137603 I0.608339 J-0.156296
G02 X108.791185 Y173.289349 I0.781329 J-0.478314
G02 X108.935240 Y173.412633 I0.659495 J-0.624804
G02 X109.101214 Y173.506086 I0.597749 J-0.867499
G02 X109.287940 Y173.571268 I0.469482 J-1.044873
G02 X109.483548 Y173.608603 I0.404454 J-1.587944
G02 X109.672100 Y173.620668 I0.188552 J-1.467345
G02 X110.032775 Y173.573435 I-0.000000 J-1.400681
G02 X110.321290 Y173.447809 I-0.270701 J-1.015815
G02 X110.557942 Y173.242430 I-0.542067 J-0.863639
G02 X110.730210 Y172.964850 I-0.855550 J-0.723207
M03 S05
G04 P0.3

(End cutting path id: path712)


(Start cutting path id: path710)
(Change tool to Default tool)

M03 S05
G04 P0.3
G00 X104.595080 Y169.707054

G04 P0.3
M03 S120
G01 X104.595080 Y172.633368 F2400.000000
G03 X104.532982 Y173.076904 I-1.615040 J0.000000
G03 X104.386930 Y173.359761 I-0.776361 J-0.221737
G03 X104.142728 Y173.545150 I-0.486774 J-0.387670
G03 X103.770540 Y173.620678 I-0.372188 J-0.879266
G03 X103.541732 Y173.598924 I0.000000 J-1.214180
G03 X103.329500 Y173.535988 I0.211664 J-1.103081
G03 X103.128471 Y173.439075 I0.668768 J-1.644207
G03 X102.934630 Y173.313836 I0.919860 J-1.636351
G03 X102.754831 Y173.168210 I1.486006 J-2.018529
G03 X102.578590 Y172.996568 I1.807649 J-2.032382
G03 X102.410468 Y172.815353 I10.642234 J-10.041904
G03 X102.247300 Y172.633371 I10.565913 J-9.637720
M03 S05
G04 P0.3

(End cutting path id: path710)


(Start cutting path id: path710)
(Change tool to Default tool)

M03 S05
G04 P0.3
G00 X99.898854 Y173.620675

G04 P0.3
M03 S120
G01 X99.898854 Y169.707051 F2400.000000
G01 X99.898854 Y173.620675
M03 S05
G04 P0.3

(End cutting path id: path710)


(Start cutting path id: path708)
(Change tool to Default tool)

M03 S05
G04 P0.3
G00 X97.960000 Y169.707051

G04 P0.3
M03 S120
G01 X97.960000 Y172.633365 F2400.000000
G03 X97.897592 Y173.077096 I-1.608692 J0.000000
G03 X97.751864 Y173.359758 I-0.782616 J-0.224584
G03 X97.507387 Y173.545208 I-0.486494 J-0.387469
G03 X97.134800 Y173.620675 I-0.372587 J-0.882015
G03 X96.906484 Y173.598921 I-0.000000 J-1.208991
G03 X96.693760 Y173.535985 I0.214826 J-1.117090
G03 X96.492731 Y173.439072 I0.668834 J-1.644334
G03 X96.298897 Y173.313833 I0.919583 J-1.635870
G03 X96.119470 Y173.168306 I1.461759 J-1.985641
G03 X95.942847 Y172.996565 I1.904406 J-2.135239
G03 X95.775456 Y172.815600 I12.896847 J-12.097357
G03 X95.611558 Y172.633368 I12.931638 J-11.795443
M03 S05
G04 P0.3

(End cutting path id: path708)


(Start cutting path id: path708)
(Change tool to Default tool)

M03 S05
G04 P0.3
G00 X93.263116 Y173.620675

G04 P0.3
M03 S120
G01 X93.263116 Y169.707051 F2400.000000
G01 X93.263116 Y173.620675
M03 S05
G04 P0.3

(End cutting path id: path708)


(Start cutting path id: path708)
(Change tool to Default tool)

M03 S05
G04 P0.3
G00 X95.611558 Y169.707051

G04 P0.3
M03 S120
G01 X95.611558 Y172.633365 F2400.000000
G03 X95.549150 Y173.077096 I-1.608692 J0.000000
G03 X95.403422 Y173.359758 I-0.782616 J-0.224584
G03 X95.159311 Y173.545032 I-0.486365 J-0.387367
G03 X94.786358 Y173.620675 I-0.372953 J-0.881586
G03 X94.557898 Y173.598890 I0.000000 J-1.208852
G03 X94.345987 Y173.535985 I0.212556 J-1.104426
G03 X94.144957 Y173.439072 I0.668847 J-1.644366
G03 X93.951123 Y173.313833 I0.919565 J-1.635846
G03 X93.771320 Y173.168207 I1.486159 J-2.018769
G03 X93.595074 Y172.996565 I1.807482 J-2.032263
G03 X93.426983 Y172.815473 I10.958875 J-10.340683
G03 X93.263116 Y172.633368 I12.471607 J-11.387330
M03 S05
G04 P0.3

(End cutting path id: path708)


(Start cutting path id: path706)
(Change tool to Default tool)

M03 S05
G04 P0.3
G00 X87.819338 Y174.502119

G04 P0.3
M03 S120
G03 X87.446848 Y174.450949 I0.000000 J-1.381355 F2400.000000
G03 X87.139361 Y174.311671 I0.300042 J-1.071469
G03 X86.876855 Y174.092066 I0.774620 J-1.192642
G03 X86.652813 Y173.793423 I1.241240 J-1.164539
G03 X86.489675 Y173.453321 I1.884275 J-1.113015
G03 X86.363689 Y173.024792 I2.787488 J-1.052296
G03 X86.293322 Y172.581379 I3.939191 J-0.852420
G03 X86.267989 Y172.083412 I4.881648 J-0.497967
G03 X86.293682 Y171.578361 I4.976796 J0.000000
G03 X86.363689 Y171.142032 I3.829374 J0.390626
G03 X86.489718 Y170.720726 I2.813617 J0.612161
G03 X86.652813 Y170.387516 I1.968138 J0.756815
G03 X86.876909 Y170.096980 I1.383440 J0.835380
G03 X87.139361 Y169.886858 I0.967932 J0.940023
G03 X87.445668 Y169.756021 I0.591801 J0.961517
G03 X87.826700 Y169.707051 I0.381032 J1.457898
G03 X88.207724 Y169.756022 I-0.000000 J1.506780
G03 X88.514031 Y169.886858 I-0.285529 J1.092442
G03 X88.776483 Y170.096979 I-0.705490 J1.150162
G03 X89.000587 Y170.387516 I-1.159475 J1.126053
G03 X89.163416 Y170.720683 I-1.792933 J1.082636
G03 X89.289703 Y171.142032 I-2.750003 J1.053831
G03 X89.359710 Y171.578361 I-3.759367 J0.826955
G03 X89.385403 Y172.083412 I-4.951103 J0.505051
G03 X89.360070 Y172.581379 I-4.906981 J0.000000
G03 X89.289703 Y173.024792 I-4.009558 J-0.409007
G03 X89.163459 Y173.453364 I-2.978990 J-0.644638
G03 X89.000587 Y173.793423 I-2.034385 J-0.765340
G03 X88.777019 Y174.092710 I-1.494306 J-0.883101
G03 X88.518042 Y174.311671 I-1.041032 J-0.968654
G03 X88.213388 Y174.450238 I-0.594320 J-0.902485
G03 X87.833385 Y174.502119 I-0.380003 J-1.365722
G01 X87.819338 Y174.502119
M03 S05
G04 P0.3

(End cutting path id: path706)


(Start cutting path id: path704)
(Change tool to Default tool)

M03 S05
G04 P0.3
G00 X82.368792 Y170.680137

G04 P0.3
M03 S120
G03 X82.591698 Y170.246906 I1.764862 J0.634097 F2400.000000
G03 X82.869467 Y169.957326 I1.041151 J0.720675
G03 X83.222882 Y169.773500 I0.720424 J0.953410
G03 X83.645143 Y169.707051 I0.422261 J1.308442
G03 X83.928573 Y169.734714 I-0.000000 J1.465812
G03 X84.181222 Y169.812807 I-0.243487 J1.235474
G03 X84.411853 Y169.941433 I-0.498990 J1.165790
G03 X84.607543 Y170.112486 I-0.711623 J1.011580
G03 X84.764588 Y170.320516 I-0.952469 J0.882328
G03 X84.889974 Y170.577855 I-1.321260 J0.802985
G03 X84.964532 Y170.854206 I-1.430427 J0.534155
G03 X84.991702 Y171.173737 I-1.865330 J0.319531
G03 X84.966809 Y171.479674 I-1.892472 J-0.000000
G03 X84.896662 Y171.751920 I-1.546773 J-0.253384
G03 X84.778131 Y172.005996 I-1.396485 J-0.496800
G03 X84.624939 Y172.213816 I-1.072172 J-0.629967
G03 X84.432685 Y172.385502 I-0.903676 J-0.818450
G03 X84.198618 Y172.520552 I-0.791893 J-1.102134
G03 X83.941908 Y172.602801 I-0.487433 J-1.079602
G03 X83.631083 Y172.633365 I-0.310825 J-1.565221
G03 X83.386096 Y172.617921 I0.000000 J-1.950798
G03 X83.102365 Y172.566375 I0.336758 J-2.660336
G03 X82.828966 Y172.478541 I0.426307 J-1.796374
G03 X82.594395 Y172.358446 I0.591774 J-1.444993
G01 X82.664665 Y174.431545
G01 X84.865198 Y174.431545
M03 S05
G04 P0.3

(End cutting path id: path704)


(Start cutting path id: path702)
(Change tool to Default tool)

M03 S05
G04 P0.3
G00 X80.570617 Y169.707051

G04 P0.3
M03 S120
G01 X80.570617 Y174.431542 F2400.000000
G01 X80.542437 Y174.431542
G01 X79.033383 Y173.366817
M03 S05
G04 P0.3

(End cutting path id: path702)


(Start cutting path id: rect686)
(Change tool to Default tool)

M03 S05
G04 P0.3
G00 X73.542671 Y179.957462

G04 P0.3
M03 S120
G01 X223.457330 Y179.957462 F2400.000000
G01 X223.457330 Y30.042540
G01 X73.542671 Y30.042540
G01 X73.542671 Y179.957462
M03 S05
G04 P0.3

(End cutting path id: rect686)


(Start cutting path id: path710)
(Change tool to Default tool)

M03 S05
G04 P0.3
G00 X102.247300 Y169.707051

G04 P0.3
M03 S120
G01 X102.247300 Y172.633365 F2400.000000
G03 X102.184891 Y173.077094 I-1.608673 J0.000000
G03 X102.039160 Y173.359758 I-0.782600 J-0.224582
G03 X101.794680 Y173.545209 I-0.486503 J-0.387482
G03 X101.422100 Y173.620675 I-0.372580 J-0.881995
G03 X101.193777 Y173.598920 I-0.000000 J-1.209038
G03 X100.981060 Y173.535985 I0.214800 J-1.116962
G03 X100.780455 Y173.439146 I0.661943 J-1.627429
G03 X100.586190 Y173.313833 I0.950865 J-1.687308
G03 X100.406770 Y173.168308 I1.461725 J-1.985547
G03 X100.230140 Y172.996565 I1.905636 J-2.136564
G03 X100.062754 Y172.815601 I12.884124 J-12.085315
G03 X99.898854 Y172.633368 I12.969863 J-11.829881
M03 S05
G04 P0.3

(End cutting path id: path710)


(Start cutting path id: path690)
(Change tool to Default tool)

M03 S05
G04 P0.3
G00 X116.188220 Y140.105985

G04 P0.3
M03 S120
G01 X147.625850 Y85.617340 F2400.000000
G01 X84.749626 Y85.617340
G01 X116.188220 Y140.105985
M03 S05
G04 P0.3

(End cutting path id: path690)


(Start cutting path id: path698)
(Change tool to Default tool)

M03 S05
G04 P0.3
G00 X182.350100 Y155.820059

G04 P0.3
M03 S120
G01 X212.248930 Y134.097023 F2400.000000
G01 X200.828510 Y98.948800
G01 X163.871160 Y98.948800
G01 X152.450740 Y134.097023
G01 X182.350100 Y155.820059
M03 S05
G04 P0.3

(End cutting path id: path698)


(Start cutting path id: circle694)
(Change tool to Default tool)

M03 S05
G04 P0.3
G00 X190.788650 Y85.617960

G04 P0.3
M03 S120
G02 X181.580719 Y63.388051 I-31.437842 J0.000002 F2400.000000
G02 X159.350810 Y54.180120 I-22.229911 J22.229911
G02 X137.120901 Y63.388051 I0.000002 J31.437842
G02 X127.912970 Y85.617960 I22.229911 J22.229911
G02 X137.120900 Y107.847870 I31.437842 J-0.000001
G02 X159.350810 Y117.055801 I22.229912 J-22.229911
G02 X181.580720 Y107.847870 I-0.000002 J-31.437842
G02 X190.788650 Y85.617960 I-22.229912 J-22.229911
G01 X190.788650 Y85.617960
M03 S05
G04 P0.3

(End cutting path id: circle694)


(Footer)
M5
G00 X0.0000 Y0.0000
M2
(Using default footer. To add your own footer create file "footer" in the output dir.)
(end)
%